src/lib/packages/icons/src/assets/filled/shopping-bag-alt.svg

<svg width="24" height="24" viewBox="0 0 24 24" fill="none" xmlns="http://www.w3.org/2000/svg">
<path d="M20.984 17.715L20.317 10.716C20.17 9.176 18.9991 8 17.3311 8H16.751V7C16.751 4.38 14.621 2.25 12.001 2.25C9.381 2.25 7.251 4.38 7.251 7V8H6.67104C5.00304 8 3.83108 9.176 3.68508 10.716L3.01797 17.715C2.84997 19.476 4.00405 21 6.00405 21H18.001C19.998 21 21.152 19.477 20.984 17.715ZM8.75002 7C8.75002 5.21 10.21 3.75 12 3.75C13.79 3.75 15.25 5.21 15.25 7V8H8.75002V7ZM8.02004 13C7.46804 13 7.01504 12.552 7.01504 12C7.01504 11.448 7.45803 11 8.01003 11H8.02004C8.57304 11 9.02004 11.448 9.02004 12C9.02004 12.552 8.57204 13 8.02004 13ZM16.02 13C15.468 13 15.015 12.552 15.015 12C15.015 11.448 15.458 11 16.01 11H16.02C16.573 11 17.02 11.448 17.02 12C17.02 12.552 16.572 13 16.02 13Z" fill="currentColor"/>
</svg>

<svg xmlns="http://www.w3.org/2000/svg" width="24" height="24" fill="none"><path fill="currentColor" d="m20.984 17.715-.667-6.999C20.17 9.176 18.999 8 17.331 8h-.58V7c0-2.62-2.13-4.75-4.75-4.75S7.251 4.38 7.251 7v1h-.58c-1.668 0-2.84 1.176-2.986 2.716l-.667 6.999C2.85 19.476 4.004 21 6.004 21h11.997c1.997 0 3.151-1.523 2.983-3.285ZM8.75 7c0-1.79 1.46-3.25 3.25-3.25S15.25 5.21 15.25 7v1h-6.5V7Zm-.73 6a1.005 1.005 0 0 1-1.005-1c0-.552.443-1 .995-1h.01a1 1 0 1 1 0 2Zm8 0a1.005 1.005 0 0 1-1.005-1c0-.552.443-1 .995-1h.01a1 1 0 1 1 0 2Z"/></svg>
